!! 00000] TT[WS
!!!OTL: Huangyandong da shili
!!!ARE: Asia, China, Shanxi Zuoquan
!! Ethnic Group: Han
!! WII, 214
!!!SCT: J0719
!!!YEM: Copyright 1995, estate of Helmut Schaffrath.
**kern
*ICvox
*Ivox
*M2/4
*k[b-]
*F:
{8.a
16cc
8.dd
16ff
=1
8dd
8cc
8b-
8a
=2
8.cc
16f
8g
8a
=3
8.cc
16ff
8dd
8a}
=4
{8cc
8f
8e
8d
=5
8f
8c
8c
8d
=6
8f
8c
8d
8f
=7
2c}
=8
{8g
8f
8e
8d
=9
8f
8c
4c
=10
8.cc
16b-
8a
8g
=11
8.a
16cc
8cc
8g}
=12
{8.a
16cc
8cc
8g
=13
8a
8f
8e
8d
=14
8f
8c
8d
8f
=15
2c}
==
!!!AGN: Xiaodiao. XÅshi, Sushuo
!!!ONB: ESAC (Essen Associative Code) Database: CHINA
!!!AMT: simple duple
!!!AIN: vox
!!!EED: Helmut Schaffrath
!!!EEV: 1.0
*-
